;FLAVOR:UltiGCode
;TIME:3534
;MATERIAL:3300
;MATERIAL2:0
;NOZZLE_DIAMETER:0.4
;Generated with Cura_SteamEngine 3.1.0
M82 ; absolute extrusion mode

;LAYER_COUNT:31
;LAYER:0
M107
G0 F4320 X77.496 Y81.75 Z0.27
;TYPE:SKIRT
G1 F1800 X78.084 Y81.217 E0.075
G1 X78.723 Y80.747 E0.14996
G1 X79.407 Y80.344 E0.22498
G1 X80.127 Y80.011 E0.29995
G1 X80.877 Y79.753 E0.3749
G1 X81.65 Y79.571 E0.44994
G1 X82.436 Y79.468 E0.52485
G1 X83.064 Y79.443 E0.58425
G1 X108.198 Y79.443 E2.95941
G1 X108.99 Y79.483 E3.03435
G1 X109.775 Y79.602 E3.10938
G1 X110.543 Y79.8 E3.18433
G1 X111.288 Y80.075 E3.25937
G1 X111.502 Y80.179 E3.28186
G1 X111.865 Y80.011 E3.31966
G1 X112.615 Y79.753 E3.39461
G1 X113.388 Y79.571 E3.46966
G1 X114.174 Y79.468 E3.54457
G1 X114.802 Y79.443 E3.60396
G1 X139.936 Y79.443 E5.97912
G1 X140.728 Y79.483 E6.05406
G1 X141.513 Y79.602 E6.12909
G1 X142.281 Y79.8 E6.20404
G1 X143.026 Y80.075 E6.27909
G1 X143.739 Y80.422 E6.35402
G1 X144.414 Y80.84 E6.42905
G1 X145.043 Y81.323 E6.50399
G1 X145.504 Y81.75 E6.56337
G1 X145.607 Y81.853 E6.57714
G1 X146.14 Y82.441 E6.65214
G1 X146.61 Y83.08 E6.7271
G1 X147.013 Y83.764 E6.80212
G1 X147.346 Y84.484 E6.87709
G1 X147.604 Y85.234 E6.95204
G1 X147.786 Y86.007 E7.02708
G1 X147.889 Y86.793 E7.10199
G1 X147.914 Y87.421 E7.16139
G1 X147.914 Y112.555 E9.53655
G1 X147.874 Y113.347 E9.61149
G1 X147.755 Y114.132 E9.68652
G1 X147.557 Y114.9 E9.76147
G1 X147.282 Y115.645 E9.83651
G1 X146.935 Y116.358 E9.91145
G1 X146.517 Y117.033 E9.98648
G1 X146.034 Y117.662 E10.06142
G1 X145.607 Y118.123 E10.1208
G1 X145.504 Y118.226 E10.13457
G1 X144.916 Y118.759 E10.20956
G1 X144.277 Y119.229 E10.28452
G1 X143.593 Y119.632 E10.35955
G1 X142.873 Y119.965 E10.43451
G1 X142.123 Y120.223 E10.50946
G1 X141.35 Y120.405 E10.58451
G1 X140.564 Y120.508 E10.65942
G1 X139.936 Y120.533 E10.71881
G1 X136.806 Y120.533 E11.0146
G1 X136.806 Y135.579 E12.43645
G1 X136.766 Y136.371 E12.51139
G1 X136.647 Y137.156 E12.58642
G1 X136.449 Y137.924 E12.66136
G1 X136.174 Y138.669 E12.73641
G1 X135.827 Y139.382 E12.81134
G1 X135.409 Y140.057 E12.88637
G1 X134.926 Y140.686 E12.96132
G1 X134.499 Y141.147 E13.0207
G1 X134.396 Y141.25 E13.03446
G1 X133.808 Y141.783 E13.10946
G1 X133.169 Y142.253 E13.18442
G1 X132.485 Y142.656 E13.25944
G1 X131.765 Y142.989 E13.33441
G1 X131.015 Y143.247 E13.40936
G1 X130.242 Y143.429 E13.4844
G1 X129.456 Y143.532 E13.55932
G1 X128.828 Y143.557 E13.61871
G1 X125.91 Y143.557 E13.89446
G1 X125.118 Y143.517 E13.9694
G1 X124.333 Y143.398 E14.04443
G1 X123.565 Y143.2 E14.11938
G1 X122.82 Y142.925 E14.19443
G1 X122.107 Y142.578 E14.26936
G1 X121.432 Y142.16 E14.34439
G1 X120.803 Y141.677 E14.41933
G1 X120.342 Y141.25 E14.47871
G1 X120.239 Y141.147 E14.49248
G1 X119.706 Y140.559 E14.56747
G1 X119.236 Y139.92 E14.64243
G1 X118.833 Y139.236 E14.71746
G1 X118.5 Y138.516 E14.79242
G1 X118.242 Y137.766 E14.86737
G1 X118.06 Y136.993 E14.94242
G1 X117.957 Y136.207 E15.01733
G1 X117.932 Y135.579 E15.07672
G1 X117.932 Y120.533 E16.49857
G1 X114.802 Y120.533 E16.79436
G1 X114.01 Y120.493 E16.8693
G1 X113.225 Y120.374 E16.94433
G1 X112.457 Y120.176 E17.01927
G1 X111.712 Y119.901 E17.09432
G1 X111.498 Y119.797 E17.11681
G1 X111.135 Y119.965 E17.1546
G1 X110.385 Y120.223 E17.22956
G1 X109.612 Y120.405 E17.3046
G1 X108.826 Y120.508 E17.37951
G1 X108.198 Y120.533 E17.43891
G1 X97.743 Y120.533 E18.4269
G1 X96.951 Y120.493 E18.50184
G1 X96.166 Y120.374 E18.57687
G1 X95.641 Y120.239 E18.6281
G1 X94.934 Y120.405 E18.69673
G1 X94.148 Y120.508 E18.77164
G1 X93.52 Y120.533 E18.83103
G1 X83.064 Y120.533 E19.81913
G1 X82.272 Y120.493 E19.89407
G1 X81.487 Y120.374 E19.9691
G1 X80.719 Y120.176 E20.04404
G1 X79.974 Y119.901 E20.11909
G1 X79.261 Y119.554 E20.19402
G1 X78.586 Y119.136 E20.26905
G1 X77.957 Y118.653 E20.344
G1 X77.496 Y118.226 E20.40338
G1 X77.393 Y118.123 E20.41714
G1 X76.86 Y117.535 E20.49214
G1 X76.39 Y116.896 E20.5671
G1 X75.987 Y116.212 E20.64212
G1 X75.654 Y115.492 E20.71709
G1 X75.396 Y114.742 E20.79204
G1 X75.214 Y113.969 E20.86708
G1 X75.111 Y113.183 E20.942
G1 X75.086 Y112.555 E21.00139
G1 X75.086 Y87.421 E23.37655
G1 X75.126 Y86.629 E23.45149
G1 X75.245 Y85.844 E23.52652
G1 X75.443 Y85.076 E23.60147
G1 X75.718 Y84.331 E23.67652
G1 X76.065 Y83.618 E23.75145
G1 X76.483 Y82.943 E23.82648
G1 X76.966 Y82.314 E23.90142
G1 X77.393 Y81.853 E23.9608
G1 X77.496 Y81.75 E23.97457
G0 F4320 X77.743 Y81.997
G1 F1800 X78.319 Y81.478 E24.04784
G1 X78.945 Y81.02 E24.12114
G1 X79.616 Y80.63 E24.19448
G1 X80.322 Y80.31 E24.26773
G1 X81.058 Y80.065 E24.34103
G1 X81.816 Y79.897 E24.4144
G1 X82.586 Y79.808 E24.48765
G1 X83.064 Y79.793 E24.53285
G1 X108.198 Y79.793 E26.90801
G1 X108.973 Y79.833 E26.98134
G1 X109.739 Y79.952 E27.0546
G1 X110.489 Y80.15 E27.1279
G1 X111.215 Y80.424 E27.20123
G1 X111.497 Y80.565 E27.23103
G1 X112.06 Y80.31 E27.28943
G1 X112.796 Y80.065 E27.36274
G1 X113.554 Y79.897 E27.43611
G1 X114.324 Y79.808 E27.50936
G1 X114.802 Y79.793 E27.55455
G1 X139.936 Y79.793 E29.92971
G1 X140.711 Y79.833 E30.00305
G1 X141.477 Y79.952 E30.0763
G1 X142.227 Y80.15 E30.14961
G1 X142.953 Y80.424 E30.22294
G1 X143.646 Y80.771 E30.29618
G1 X144.3 Y81.188 E30.36947
G1 X144.908 Y81.67 E30.44279
G1 X145.257 Y81.997 E30.48799
G1 X145.36 Y82.1 E30.50175
G1 X145.879 Y82.676 E30.57502
G1 X146.337 Y83.302 E30.64832
G1 X146.727 Y83.973 E30.72166
G1 X147.047 Y84.679 E30.79491
G1 X147.292 Y85.415 E30.86822
G1 X147.46 Y86.173 E30.94159
G1 X147.549 Y86.943 E31.01484
G1 X147.564 Y87.421 E31.06003
G1 X147.564 Y112.555 E33.43519
G1 X147.524 Y113.33 E33.50853
G1 X147.405 Y114.096 E33.58178
G1 X147.207 Y114.846 E33.65509
G1 X146.933 Y115.572 E33.72842
G1 X146.586 Y116.265 E33.80166
G1 X146.169 Y116.919 E33.87495
G1 X145.687 Y117.527 E33.94828
G1 X145.36 Y117.876 E33.99347
G1 X145.257 Y117.979 E34.00724
G1 X144.681 Y118.498 E34.0805
G1 X144.055 Y118.956 E34.1538
G1 X143.384 Y119.346 E34.22715
G1 X142.678 Y119.666 E34.3004
G1 X141.942 Y119.911 E34.3737
G1 X141.184 Y120.079 E34.44707
G1 X140.414 Y120.168 E34.52032
G1 X139.936 Y120.183 E34.56551
G1 X136.456 Y120.183 E34.89437
G1 X136.456 Y135.579 E36.34929
G1 X136.416 Y136.354 E36.42263
G1 X136.297 Y137.12 E36.49588
G1 X136.099 Y137.87 E36.56919
G1 X135.825 Y138.596 E36.64252
G1 X135.478 Y139.289 E36.71576
G1 X135.061 Y139.943 E36.78906
G1 X134.579 Y140.551 E36.86238
G1 X134.252 Y140.9 E36.90757
G1 X134.149 Y141.003 E36.92134
G1 X133.573 Y141.522 E36.99461
G1 X132.947 Y141.98 E37.0679
G1 X132.276 Y142.37 E37.14125
G1 X131.57 Y142.69 E37.2145
G1 X130.834 Y142.935 E37.2878
G1 X130.076 Y143.103 E37.36117
G1 X129.306 Y143.192 E37.43442
G1 X128.828 Y143.207 E37.47961
G1 X125.91 Y143.207 E37.75536
G1 X125.135 Y143.167 E37.8287
G1 X124.369 Y143.048 E37.90195
G1 X123.619 Y142.85 E37.97526
G1 X122.893 Y142.576 E38.04859
G1 X122.2 Y142.229 E38.12183
G1 X121.546 Y141.812 E38.19512
G1 X120.938 Y141.33 E38.26845
G1 X120.589 Y141.003 E38.31364
G1 X120.486 Y140.9 E38.32741
G1 X119.967 Y140.324 E38.40067
G1 X119.509 Y139.698 E38.47397
G1 X119.119 Y139.027 E38.54732
G1 X118.799 Y138.321 E38.62057
G1 X118.554 Y137.585 E38.69387
G1 X118.386 Y136.827 E38.76724
G1 X118.297 Y136.057 E38.84049
G1 X118.282 Y135.579 E38.88568
G1 X118.282 Y120.183 E40.3406
G1 X114.802 Y120.183 E40.66946
G1 X114.027 Y120.143 E40.7428
G1 X113.261 Y120.024 E40.81605
G1 X112.511 Y119.826 E40.88936
G1 X111.785 Y119.552 E40.96269
G1 X111.503 Y119.411 E40.99248
G1 X110.94 Y119.666 E41.05089
G1 X110.204 Y119.911 E41.12419
G1 X109.446 Y120.079 E41.19756
G1 X108.676 Y120.168 E41.27081
G1 X108.198 Y120.183 E41.31601
G1 X97.743 Y120.183 E42.304
G1 X96.968 Y120.143 E42.37734
G1 X96.202 Y120.024 E42.45059
G1 X95.636 Y119.874 E42.50593
G1 X95.526 Y119.911 E42.51689
G1 X94.768 Y120.079 E42.59026
G1 X93.998 Y120.168 E42.66351
G1 X93.52 Y120.183 E42.70871
G1 X83.064 Y120.183 E43.6968
G1 X82.289 Y120.143 E43.77013
G1 X81.523 Y120.024 E43.84339
G1 X80.773 Y119.826 E43.91669
G1 X80.047 Y119.552 E43.99002
G1 X79.354 Y119.205 E44.06326
G1 X78.7 Y118.788 E44.13656
G1 X78.092 Y118.306 E44.20988
G1 X77.743 Y117.979 E44.25507
G1 X77.64 Y117.876 E44.26884
G1 X77.121 Y117.3 E44.34211
G1 X76.663 Y116.674 E44.41541
G1 X76.273 Y116.003 E44.48875
G1 X75.953 Y115.297 E44.562
G1 X75.708 Y114.561 E44.6353
G1 X75.54 Y113.803 E44.70867
G1 X75.451 Y113.033 E44.78192
G1 X75.436 Y112.555 E44.82712
G1 X75.436 Y87.421 E47.20228
G1 X75.476 Y86.646 E47.27561
G1 X75.595 Y85.88 E47.34887
G1 X75.793 Y85.13 E47.42217
G1 X76.067 Y84.404 E47.4955
G1 X76.414 Y83.711 E47.56874
G1 X76.831 Y83.057 E47.64204
G1 X77.313 Y82.449 E47.71536
G1 X77.64 Y82.1 E47.76056
G1 X77.743 Y81.997 E47.77432
G0 F4320 X77.991 Y82.245
G1 F1800 X78.554 Y81.738 E47.84592
G1 X79.167 Y81.294 E47.91745
G1 X79.824 Y80.916 E47.98908
G1 X80.516 Y80.61 E48.06058
G1 X81.238 Y80.379 E48.13221
G1 X81.979 Y80.225 E48.20373
G1 X83.064 Y80.143 E48.30656
G1 X108.198 Y80.143 E50.68172
G1 X108.954 Y80.183 E50.75326
G1 X109.702 Y80.302 E50.82484
G1 X110.433 Y80.5 E50.89641
G1 X111.14 Y80.774 E50.96806
G1 X111.493 Y80.956 E51.00559
G1 X111.562 Y80.916 E51.01313
G1 X112.254 Y80.61 E51.08463
G1 X112.976 Y80.379 E51.15627
G1 X113.717 Y80.225 E51.22779
G1 X114.802 Y80.143 E51.33061
G1 X139.936 Y80.143 E53.70578
G1 X140.692 Y80.183 E53.77732
G1 X141.44 Y80.302 E53.84889
G1 X142.171 Y80.5 E53.92046
G1 X142.878 Y80.774 E53.99212
G1 X143.551 Y81.12 E54.06363
G1 X144.184 Y81.536 E54.13521
G1 X145.009 Y82.245 E54.238
G1 X145.112 Y82.348 E54.25177
G1 X145.619 Y82.911 E54.32337
G1 X146.063 Y83.524 E54.39489
G1 X146.441 Y84.181 E54.46652
G1 X146.747 Y84.873 E54.53802
G1 X146.978 Y85.595 E54.60966
G1 X147.132 Y86.336 E54.68118
G1 X147.214 Y87.421 E54.78401
G1 X147.214 Y112.555 E57.15917
G1 X147.174 Y113.311 E57.23071
G1 X147.055 Y114.059 E57.30229
G1 X146.857 Y114.79 E57.37386
G1 X146.583 Y115.497 E57.44551
G1 X146.237 Y116.17 E57.51702
G1 X145.821 Y116.803 E57.5886
G1 X145.112 Y117.628 E57.6914
G1 X145.009 Y117.731 E57.70516
G1 X144.446 Y118.238 E57.77676
G1 X143.833 Y118.682 E57.84829
G1 X143.176 Y119.06 E57.91992
G1 X142.484 Y119.366 E57.99142
G1 X141.762 Y119.597 E58.06305
G1 X141.021 Y119.751 E58.13457
G1 X139.936 Y119.833 E58.2374
G1 X136.106 Y119.833 E58.59933
G1 X136.106 Y135.579 E60.08733
G1 X136.066 Y136.335 E60.15887
G1 X135.947 Y137.083 E60.23045
G1 X135.749 Y137.814 E60.30202
G1 X135.475 Y138.521 E60.37367
G1 X135.129 Y139.194 E60.44518
G1 X134.713 Y139.827 E60.51676
G1 X134.004 Y140.652 E60.61956
G1 X133.901 Y140.755 E60.63332
G1 X133.338 Y141.262 E60.70492
G1 X132.725 Y141.706 E60.77645
G1 X132.068 Y142.084 E60.84808
G1 X131.376 Y142.39 E60.91958
G1 X130.654 Y142.621 E60.99122
G1 X129.913 Y142.775 E61.06274
G1 X128.828 Y142.857 E61.16556
G1 X125.91 Y142.857 E61.44131
G1 X125.154 Y142.817 E61.51285
G1 X124.406 Y142.698 E61.58443
G1 X123.675 Y142.5 E61.656
G1 X122.968 Y142.226 E61.72765
G1 X122.295 Y141.88 E61.79916
G1 X121.662 Y141.464 E61.87074
G1 X120.837 Y140.755 E61.97354
G1 X120.734 Y140.652 E61.9873
G1 X120.227 Y140.089 E62.0589
G1 X119.783 Y139.476 E62.13043
G1 X119.405 Y138.819 E62.20206
G1 X119.099 Y138.127 E62.27356
G1 X118.868 Y137.405 E62.3452
G1 X118.714 Y136.664 E62.41672
G1 X118.632 Y135.579 E62.51954
G1 X118.632 Y119.833 E64.00754
G1 X114.802 Y119.833 E64.36947
G1 X114.046 Y119.793 E64.44102
G1 X113.298 Y119.674 E64.51259
G1 X112.567 Y119.476 E64.58416
G1 X111.86 Y119.202 E64.65581
G1 X111.507 Y119.02 E64.69334
G1 X111.438 Y119.06 E64.70088
G1 X110.746 Y119.366 E64.77238
G1 X110.024 Y119.597 E64.84402
G1 X109.283 Y119.751 E64.91554
G1 X108.198 Y119.833 E65.01837
G1 X97.743 Y119.833 E66.00636
G1 X96.987 Y119.793 E66.07791
G1 X96.239 Y119.674 E66.14948
G1 X95.625 Y119.508 E66.20959
G1 X95.346 Y119.597 E66.23726
G1 X94.605 Y119.751 E66.30878
G1 X93.52 Y119.833 E66.41161
G1 X83.064 Y119.833 E67.3997
G1 X82.308 Y119.793 E67.47124
G1 X81.56 Y119.674 E67.54282
G1 X80.829 Y119.476 E67.61438
G1 X80.122 Y119.202 E67.68604
G1 X79.449 Y118.856 E67.75755
G1 X78.816 Y118.44 E67.82913
G1 X77.991 Y117.731 E67.93193
G1 X77.888 Y117.628 E67.94569
G1 X77.381 Y117.065 E68.01729
G1 X76.937 Y116.452 E68.08882
G1 X76.559 Y115.795 E68.16044
G1 X76.253 Y115.103 E68.23195
G1 X76.022 Y114.381 E68.30358
G1 X75.868 Y113.64 E68.3751
G1 X75.786 Y112.555 E68.47793
G1 X75.786 Y87.421 E70.85309
G1 X75.826 Y86.665 E70.92463
G1 X75.945 Y85.917 E70.99621
G1 X76.143 Y85.186 E71.06778
G1 X76.417 Y84.479 E71.13943
G1 X76.763 Y83.806 E71.21094
G1 X77.179 Y83.173 E71.28252
G1 X77.888 Y82.348 E71.38532
G1 X77.991 Y82.245 E71.39908
G0 F4320 X78.238 Y82.492
G1 F1800 X78.788 Y81.999 E71.46888
G1 X79.388 Y81.568 E71.5387
G1 X80.031 Y81.204 E71.60852
G1 X80.709 Y80.912 E71.67828
G1 X81.415 Y80.695 E71.74808
G1 X82.141 Y80.556 E71.81793
G1 X83.064 Y80.493 E71.90536
G1 X108.198 Y80.493 E74.28052
G1 X108.936 Y80.533 E74.35036
G1 X109.664 Y80.652 E74.42007
G1 X110.376 Y80.85 E74.48991
G1 X111.062 Y81.123 E74.55968
G1 X111.501 Y81.356 E74.60665
G1 X111.769 Y81.204 E74.63576
G1 X112.447 Y80.912 E74.70552
G1 X113.153 Y80.695 E74.77532
G1 X113.879 Y80.556 E74.84517
G1 X114.802 Y80.493 E74.9326
G1 X139.936 Y80.493 E77.30776
G1 X140.674 Y80.533 E77.37761
G1 X141.402 Y80.652 E77.44732
G1 X142.114 Y80.85 E77.51715
G1 X142.8 Y81.123 E77.58693
G1 X143.453 Y81.469 E77.65676
G1 X144.065 Y81.883 E77.72659
G1 X144.762 Y82.492 E77.81405
G1 X144.865 Y82.595 E77.82782
G1 X145.358 Y83.145 E77.89762
G1 X145.789 Y83.745 E77.96743
G1 X146.153 Y84.388 E78.03725
G1 X146.445 Y85.066 E78.10701
G1 X146.662 Y85.772 E78.17681
G1 X146.801 Y86.498 E78.24666
G1 X146.864 Y87.421 E78.33409
G1 X146.864 Y112.555 E80.70925
G1 X146.824 Y113.293 E80.7791
G1 X146.705 Y114.021 E80.84881
G1 X146.507 Y114.733 E80.91864
G1 X146.234 Y115.419 E80.98841
G1 X145.888 Y116.072 E81.05825
G1 X145.474 Y116.684 E81.12807
G1 X144.865 Y117.381 E81.21554
G1 X144.762 Y117.484 E81.22931
G1 X144.212 Y117.977 E81.29911
G1 X143.612 Y118.408 E81.36892
G1 X142.969 Y118.772 E81.43874
G1 X142.291 Y119.064 E81.5085
G1 X141.585 Y119.281 E81.5783
G1 X140.859 Y119.42 E81.64815
G1 X139.936 Y119.483 E81.73558
G1 X135.756 Y119.483 E82.13059
G1 X135.756 Y135.579 E83.65166
G1 X135.716 Y136.317 E83.72151
G1 X135.597 Y137.045 E83.79121
G1 X135.399 Y137.757 E83.86105
G1 X135.126 Y138.443 E83.93082
G1 X134.78 Y139.096 E84.00066
G1 X134.366 Y139.708 E84.07048
G1 X133.757 Y140.405 E84.15795
G1 X133.654 Y140.508 E84.17171
G1 X133.104 Y141.001 E84.24151
G1 X132.504 Y141.432 E84.31133
G1 X131.861 Y141.796 E84.38115
G1 X131.183 Y142.088 E84.45091
G1 X130.477 Y142.305 E84.52071
G1 X129.751 Y142.444 E84.59056
G1 X128.828 Y142.507 E84.67799
G1 X125.91 Y142.507 E84.95374
G1 X125.172 Y142.467 E85.02358
G1 X124.444 Y142.348 E85.09329
G1 X123.732 Y142.15 E85.16313
G1 X123.046 Y141.877 E85.2329
G1 X122.393 Y141.531 E85.30274
G1 X121.781 Y141.117 E85.37256
G1 X121.084 Y140.508 E85.46003
G1 X120.981 Y140.405 E85.47379
G1 X120.488 Y139.855 E85.54359
G1 X120.057 Y139.255 E85.6134
G1 X119.693 Y138.612 E85.68323
G1 X119.401 Y137.934 E85.75299
G1 X119.184 Y137.228 E85.82279
G1 X119.045 Y136.502 E85.89264
G1 X118.982 Y135.579 E85.98007
G1 X118.982 Y119.483 E87.50114
G1 X114.802 Y119.483 E87.89615
G1 X114.064 Y119.443 E87.96599
G1 X113.336 Y119.324 E88.0357
G1 X112.624 Y119.126 E88.10554
G1 X111.938 Y118.853 E88.17531
G1 X111.499 Y118.62 E88.22228
G1 X111.231 Y118.772 E88.25139
G1 X110.553 Y119.064 E88.32115
G1 X109.847 Y119.281 E88.39095
G1 X109.121 Y119.42 E88.4608
G1 X108.198 Y119.483 E88.54823
G1 X97.743 Y119.483 E89.53623
G1 X97.005 Y119.443 E89.60607
G1 X96.277 Y119.324 E89.67578
G1 X95.622 Y119.142 E89.74002
G1 X95.169 Y119.281 E89.7848
G1 X94.443 Y119.42 E89.85465
G1 X93.52 Y119.483 E89.94208
G1 X83.064 Y119.483 E90.93017
G1 X82.326 Y119.443 E91.00001
G1 X81.598 Y119.324 E91.06972
G1 X80.886 Y119.126 E91.13956
G1 X80.2 Y118.853 E91.20933
G1 X79.547 Y118.507 E91.27917
G1 X78.935 Y118.093 E91.34899
G1 X78.238 Y117.484 E91.43646
G1 X78.135 Y117.381 E91.45022
G1 X77.642 Y116.831 E91.52002
G1 X77.211 Y116.231 E91.58984
G1 X76.847 Y115.588 E91.65966
G1 X76.555 Y114.91 E91.72942
G1 X76.338 Y114.204 E91.79922
G1 X76.199 Y113.478 E91.86907
